X: 2
T: L' Amour fidelle
%R: march
Z: 2015 John Chambers <jc:trillian.mit.edu>
S: http://books.google.com/books?id=ipV0y26Vq8EC
B: Giovanni Andrea Gallini  "A New Collection of Forty-Four Cotillions" c.1755 #2
M: 2/4
L: 1/8
K: D
% - - - - - - - - - - - - - - - - - - - - - - - - - - - - -
% Voice 1 staff breaks arranged to fit a wider page:
V: 1
A>B |\
AdAG | {G}F2GF | EDCD | EA,A>B |\
AdAG | {G}F2GF | EDEC | D2 :|
!segno!AA |\
BA dc | {c}B2 cA | ^GA Bc | {c}B2 ec |\
dc BA | dc {c}BA | ^GA c/B/A/^G/ | A2 ||
A>B |\
AdAG | {G}F2GF | EDCD | EA,A>B |\
AdAG | {G}F2GF | EDEC | HD2 !segno!y|]
% - - - - - - - - - - - - - - - - - - - - - - - - - - - - -
% Voice 2 preserves the original staff layout:
V: 2 clef=bass middle=d
dd |\
d2d'a | dd'ba | gfed |
A2dd | d2d'a | dd'ba | gfga |
d2 :| !segno!cc | dcBA | eEAc | BA^GA |
ed cA | fe dc | fe dc | BA eE |
A2 || dd | d2d'a | fd'ba | gfed |
A2dd | d2d'a | dd'ba | gfga | Hd2 !segno!y|]
% - - - - - - - - - - Dance description - - - - - - - - - -
%%sep 1 1 400
%%center L'Amour Fidelle.
%%begintext align
%%   Le Grand Rond - - - - - 2/1
%%endtext
%%begintext align
%%   The Ladies Contretems Forward and turn to
%% face their Partners, then all Eight Allemande - 1/2
%%endtext
%%begintext align
%%    All half a Course, with the Rigaudon at every
%% Place - - - - - - 1/3
%%endtext
%%begintext align
%%   The Gentlemen Contretems Forward and
%% turn to face their Ladies, then all Eight
%% Allemande - - - - - - 1/2
%%endtext
%%begintext align
%%   All half a Course with the Rigaudon at every
%% place - - - - - - 1/3
%%endtext
%%sep 1 1 400

%%sep 2 1 500
%%sep 1 1 500

